X: 30488
T: Old, The
R: waltz
M: 3/4
K: Gmajor
ED|G3 A (3BAG|A2E2G2|c3 B cB|c2E2G2|
G3 A (3BAG|A2E2G2|(A6|A4)ED|
G3 A (3BAG|A2E2G2|cB cB cd|eg3e(d|
d2)B2GB|A<(E E2)D2|(G6|G4)B/ (3def||
g2f2e2|d2B2G>B|c3 d ef|g3 e (d2|
d4)B/(3def|g2f2e2|d2B2G>B|(A6|
A4)B/(3def|g2f2e2|d2B2G>B|cB cB cd|
eg3e(d|d2)B2GB|A<(E E2)D2|G6||

